!!!COA: Josquin des Prez
!!!CDT: ~1450-1521/08/27
!!!COM2: La Rue, Pierre de
!!!CDT2: ~1452///-1518/11/20/
!!!OTL@@FRA: Leal schray tante
!!!AGN: Chanson
!!!SCT: NJE 28.21
!!!SCA: New Josquin Edition 28.21
!!!voices: 4
**kern	**kern	**kern	**kern
*staff4	*staff3	*staff2	*staff1
*Ivox	*Ivox	*Ivox	*Ivox
*I"Bassus	*I"Tenor	*I"Altus	*I"Superius
*I'B	*I'T	*I'A	*I'S
*clefF4	*clefGv2	*clefGv2	*clefG2
*k[]	*k[]	*k[]	*k[]
*M2/1	*M2/1	*M2/1	*M2/1
*met(C|)	*met(C|)	*met(C|)	*met(C|)
=1-	=1-	=1-	=1-
0r	0r	1E	1r
.	.	2G/	2r
.	.	2A/	2e/
=2	=2	=2	=2
1r	0r	2B\	2g/
.	.	2c\	2a/
2r	.	2d\	2b\
2AA/	.	2e\	[2cc\
=3	=3	=3	=3
2.C/	2r	1A	2cc\]
.	2E/	.	2cc\
4D\	.	.	.
2E\	2G/	2G/	2b\
2F\	2A/	2c\	2a/
=4	=4	=4	=4
2G\	2B\	2B\	2dd\
2A\	2c\	2e\	2cc\
2D\	2d\	2f\	2a/
2C/	2e\	[2e\	[2cc\
=5	=5	=5	=5
1F	1A	4e\]	4cc\]
.	.	8d\L	4b\
.	.	8c\J	.
.	.	2d\	1a
1E	1B	1e	.
.	.	.	2g#i/
=6	=6	=6	=6
1AA	1A	1r	0a
1r	1r	2r	.
.	.	[2d\	.
=7	=7	=7	=7
0r	0r	2d\]	2r
.	.	2d\	1a
.	.	2c\	.
.	.	2A/	2a/
=8	=8	=8	=8
0r	0r	2B\	2g/
.	.	2c\	2e/
.	.	[1d	2f/
.	.	.	2g/
=9	=9	=9	=9
2r	1r	1d]	0a
1D	.	.	.
.	2r	1r	.
2D\	[2A/	.	.
=10	=10	=10	=10
2C/	2A/]	0r	0r
2AA/	2A/	.	.
2BB/	2G/	.	.
2C/	2E/	.	.
=11	=11	=11	=11
1D	2F/	0A	1d
.	2G/	.	.
1AA	1A	.	1c
=12	=12	=12	=12
1.BB-	1D	1F	1.f
.	2r	1B-i	.
4AA/	2E/	.	2g/
4GG/	.	.	.
=13	=13	=13	=13
1FF	2.F/	1A	2.a/
.	4G/	.	4b\
2r	1A	2r	1cc
2FF/	.	2A/	.
=14	=14	=14	=14
2GG/	2B\	2G/	2b\
1AA	1c	2E/	1a
.	.	2e\	.
2BB/	4B\	2d\	4g/
.	4A/	.	4f/
=15	=15	=15	=15
1.C	1G	1e	1e
.	2r	1A	1a
2D\	2F/	.	.
=16	=16	=16	=16
2E\	2G/	0r	2g/
2C/	2A/	.	2e/
2D\	2F/	.	2f/
2E\	2G/	.	[2e/
=17	=17	=17	=17
1AA	1A	2r	2e/]
.	.	1F	4d/
.	.	.	4c/
1BB-	1D	.	1d
.	.	2G/	.
=18	=18	=18	=18
1AA	2E/	2A/	2c/
.	2C/	2E/	2.e/
2GG/	1D	1G	.
.	.	.	4d/
2BB-i/	.	.	[2d/
=19	=19	=19	=19
1AA	1E	1A	2d/]
.	.	.	2c#i/
1D	1r	2D/	[1d
.	.	2d\	.
=20	=20	=20	=20
2r	0r	2d\	1d]
2D\	.	1f	.
2D\	.	.	2r
[2F\	.	4e\	2a/
.	.	4d\	.
=21	=21	=21	=21
2F\]	2r	2.c\	2a/
4E\	2A/	.	1cc
4D\	.	4d\	.
2.C/	2A/	2e\	.
.	[2c\	2A/	4b\
4D\	.	.	4a/
=22	=22	=22	=22
2E\	2c\]	[0e	2g/
2AA/	4B\	.	2a/
.	4A/	.	.
1r	2G/	.	2b\
.	2A/	.	[2e/
=23	=23	=23	=23
1.E	2B\	1e]	4e/]
.	.	.	4f/
.	2E/	.	4g/
.	.	.	4a/
.	2r	2r	2b\
[2F\	[2A/	[2c\	2a/
=24	=24	=24	=24
2F\]	4A/]	4c\]	2r
.	4B\	4d\	.
4E\	4c\	4e\	2.cc\
4D\	4d\	4f\	.
1C	1e	2g\	.
.	.	.	4g/
.	.	2e\	2cc\
=25	=25	=25	=25
1D	2.d\	1f	2b\
.	.	.	1a
.	4c\	.	.
1E	1B	1e	.
.	.	.	2g#i/
=26	=26	=26	=26
[0AA	1A	2r	0a
.	.	2A/	.
.	2r	2.c\	.
.	2A/	.	.
.	.	4d\	.
=27	=27	=27	=27
1AA]	2.c\	1e	2r
.	.	.	2A/
.	4d\	.	.
2r	1e	1r	2.c/
2AA/	.	.	.
.	.	.	4d/
=28	=28	=28	=28
2.C/	0r	2r	1e
.	.	2E/	.
4D\	.	.	.
2E\	.	2G/	1r
2F\	.	2A/	.
=29	=29	=29	=29
2G\	0r	2B\	0r
2A\	.	2c\	.
2D\	.	2d\	.
2C/	.	2e\	.
=30	=30	=30	=30
1F	0r	2A/	0r
.	.	1d	.
1E	.	.	.
.	.	2c#i\	.
=31	=31	=31	=31
1D	1r	1d	2r
.	.	.	2A/
1r	2r	1r	2.c/
.	2AA/	.	.
.	.	.	4d/
=32	=32	=32	=32
0r	2C/	0r	2e/
.	2D/	.	2f/
.	2E/	.	2g/
.	2F/	.	2a/
=33	=33	=33	=33
2r	2G/	1r	2d/
2C/	2A/	.	2c/
2D\	2D/	2F/	2f/
2E\	2C/	2G/	[2e/
=34	=34	=34	=34
2AA/	2F/	2A/	4e/]
.	.	.	4d/
2GG/	2G/	2D/	1d
1AA	1E	1A	.
.	.	.	2c#i/
=35	=35	=35	=35
0Dl	0Dl	0Al	0dl
==	==	==	==
*-	*-	*-	*-
!!!RDF**kern: V=start of tuplet marker
!!!RDF**kern: Z=end of tuplet marker
!!!RDF**kern: l=long note in original notation
!!!RDF**kern: i=editorial accidental
!!!ENC: Will Watson 19/08/2011
!!!END: 2011/08/19/
!!!EED: Jesse Rodin
!!!EEV: 2011/10/07/
!!attribution-level@Jos: 5 (doubtful)
!!!ONB: Translated from MusicXML and edited on 2011/10/07/ by Craig Sapp
!!muse2ps:  C^La Rue/Josquin?\n@{SCT}^v90,100,90,150I150Q16
